packages/bezier-icons/icons/globe.svg

<svg width="24" height="24" viewBox="0 0 24 24" fill="none" xmlns="http://www.w3.org/2000/svg">
<path fill-rule="evenodd" clip-rule="evenodd" d="M15.3335 19.2627C16.1525 17.5717 16.6315 15.2967 16.7385 12.9997H19.9305C19.5805 15.7877 17.7925 18.1287 15.3335 19.2627ZM4.06949 12.9997H7.26249C7.37049 15.2967 7.84949 17.5727 8.66849 19.2637C6.20849 18.1307 4.41949 15.7877 4.06949 12.9997ZM8.66849 4.73569C7.84949 6.42669 7.37049 8.70169 7.26249 10.9997H4.06949C4.41949 8.21069 6.20849 5.86869 8.66849 4.73569ZM9.26249 10.9997C9.46649 6.69669 10.9535 4.00069 12.0005 4.00069C13.0485 4.00069 14.5345 6.69669 14.7385 10.9997H9.26249ZM12.0005 19.9987C10.9535 19.9987 9.46649 17.3027 9.26249 12.9997H14.7385C14.5345 17.3027 13.0485 19.9987 12.0005 19.9987ZM19.9305 10.9997H16.7385C16.6315 8.70269 16.1525 6.42769 15.3335 4.73669C17.7925 5.87069 19.5805 8.21169 19.9305 10.9997ZM12.0005 1.99969C6.48549 1.99969 2.00049 6.48569 2.00049 11.9997C2.00049 17.5137 6.48549 21.9997 12.0005 21.9997C17.5145 21.9997 22.0005 17.5137 22.0005 11.9997C22.0005 6.48569 17.5145 1.99969 12.0005 1.99969Z" fill="#313234"/>
</svg>

<svg xmlns="http://www.w3.org/2000/svg" width="24" height="24" fill="none" viewBox="0 0 24 24"><path fill="#313234" fill-rule="evenodd" d="M15.334 19.263c.819-1.691 1.297-3.966 1.404-6.263h3.192a8.01 8.01 0 0 1-4.596 6.263M4.069 13h3.193c.108 2.297.587 4.573 1.406 6.264A8.01 8.01 0 0 1 4.07 13m4.6-8.264C7.848 6.426 7.37 8.702 7.261 11H4.07a8.01 8.01 0 0 1 4.6-6.264M9.261 11c.204-4.303 1.691-7 2.739-7s2.534 2.697 2.738 7zm2.739 8.999c-1.047 0-2.535-2.696-2.739-7h5.477c-.205 4.304-1.69 7-2.738 7m7.93-9h-3.193c-.107-2.296-.585-4.571-1.404-6.262A8.01 8.01 0 0 1 19.93 11M12 2C6.485 2 2 6.487 2 12c0 5.515 4.484 10 10 10 5.514 0 10-4.485 10-10 0-5.513-4.486-10-10-10" clip-rule="evenodd"/></svg>
